outputs/icons/social/add_group_round.svg

<svg xmlns="http://www.w3.org/2000/svg" width="1200" height="1200" fill="none"><g fill="#000" clip-path="url(#a)"><path d="M400 800c116.5 0 350 58.5 350 175v75c0 27.5-22.5 50-50 50H100c-27.5 0-50-22.5-50-50v-75c0-116.5 233.5-175 350-175M800 800c116.5 0 350 58.5 350 175v75c0 27.5-22.5 50-50 50H841.015c5.5-15.5 8.985-32.5 8.985-50v-75c0-73.495-39.49-129.01-96.485-170.51-.5-.495-1.005-1.5-2-2 17.495-1.5 33.99-2.49 48.485-2.49M400 400c83 0 149.51 67 149.51 150S483 700 400 700s-150-67-150-150 67-150 150-150M800 400c83 0 149.51 67 149.51 150S883 700 800 700s-150-67-150-150 67-150 150-150M1000 100c27.5 0 50 22.5 50 50v50h50c27.5 0 50 22.5 50 50s-22.5 50-50 50h-50v50c0 27.5-22.5 50-50 50s-50-22.5-50-50v-50h-50c-27.5 0-50-22.5-50-50s22.5-50 50-50h50v-50c0-27.5 22.5-50 50-50"/></g><defs><clipPath id="a"><path fill="#fff" d="M0 0h1200v1200H0z"/></clipPath></defs></svg>

<svg width="1200" height="1200" viewBox="0 0 1200 1200" fill="none" xmlns="http://www.w3.org/2000/svg"><g clip-path="url(#clip0_231_5369)"><path fill-rule="evenodd" d="M1050 150V200H1100C1127.5 200 1150 222.5 1150 250C1150 277.5 1127.5 300 1100 300H1050V350C1050 377.5 1027.5 400 1000 400C972.5 400 950 377.5 950 350V300H900C872.5 300 850 277.5 850 250C850 222.5 872.5 200 900 200H950V150C950 122.5 972.5 100 1000 100C1027.5 100 1050 122.5 1050 150ZM949.5 550C949.5 633 883 700 800 700C717 700 650 633 650 550C650 467 717 400 800 400C883 400 949.5 467 949.5 550ZM549.5 550C549.5 633 483 700 400 700C317 700 250 633 250 550C250 467 317 400 400 400C483 400 549.5 467 549.5 550ZM50 975C50 858.5 283.5 800 400 800C516.5 800 750 858.5 750 975V1050C750 1077.5 727.5 1100 700 1100H100C72.5 1100 50 1077.5 50 1050V975ZM751.5 802.5C769 801 785.5 800 800 800C916.5 800 1150 858.5 1150 975V1050C1150 1077.5 1127.5 1100 1100 1100H841C846.5 1084.5 850 1067.5 850 1050V975C850 901.5 810.5 846 753.5 804.5C753.35 804.35 753.195 804.15 753.03 803.935C752.65 803.44 752.195 802.85 751.5 802.5Z" fill="#1D1E23"/></g><defs><clipPath id="clip0_231_5369"><path width="24" fill="white" d="M0 0H1200V1200H0V0z"/></clipPath></defs></svg>
